X: 8
T: Medway Jig #3 (©1997 Paul Milde;J54)
I: Medway Jig #3	J-54	D	jig
M: 6/8
R: jig
K: G
D| "G"G3 "D"FGA| "G"G3 D2G| B2d dcB| "D"AGA "G"B2d|       d2c B2A| GAB "D"A2D| "G"G2G "D"F2G| AGF "G"G2 :|
d| "C"e3 efg| "G"d3 dcB| "D"cBA "G"BAG| "Am"ABe "D"d2d|    "C"e3 efg| age "G"d2B| "C"cde "G"dcB| "D"FGA "G"G2d|
   "C"e3 efg| "G"d3 dcB| "D"cBA "G"BAG| "Am"ABe "D"d2d|1    "C"e3 gfe| "G"ded B2G| "D"A2c "G"BAG| "D"FGA "G"G2 |] 
P: Last time
   "C"e3 gfe| "G"d3  B2d| "D"A2c "G"BAG| "D"FGA "G"G3|]

#include "LeftHeader.h"
%%footer 08/29/98 For use only by Roaring Jelly members
% ---------- set 34 ----------
% Lad O'Beirne (D) / Devlin's (Bm) / Medway Jig II (G)
%%text Set 34
